static/img/logo-mono-dark.svg

<?xml version="1.0" encoding="UTF-8" standalone="no"?>
<svg
   width="1059mm"
   height="288.66mm"
   version="1.1"
   viewBox="0 0 1059 288.66"
   id="svg50"
   sodipodi:docname="logo-mono-dark.svg"
   inkscape:version="1.2.1 (9c6d41e, 2022-07-14)"
   xmlns:inkscape="http://www.inkscape.org/namespaces/inkscape"
   xmlns:sodipodi="http://sodipodi.sourceforge.net/DTD/sodipodi-0.dtd"
   xmlns="http://www.w3.org/2000/svg"
   xmlns:svg="http://www.w3.org/2000/svg">
  <sodipodi:namedview
     id="namedview52"
     pagecolor="#ffffff"
     bordercolor="#666666"
     borderopacity="1.0"
     inkscape:showpageshadow="2"
     inkscape:pageopacity="0.0"
     inkscape:pagecheckerboard="0"
     inkscape:deskcolor="#d1d1d1"
     inkscape:document-units="mm"
     showgrid="false"
     inkscape:zoom="0.21631562"
     inkscape:cx="1807.544"
     inkscape:cy="545.49922"
     inkscape:window-width="1512"
     inkscape:window-height="842"
     inkscape:window-x="0"
     inkscape:window-y="38"
     inkscape:window-maximized="0"
     inkscape:current-layer="g48" />
  <defs
     id="defs12">
    <clipPath
       id="a">
      <rect
         y="687"
         width="1095"
         height="1100"
         id="rect9" />
    </clipPath>
  </defs>
  <g
     transform="translate(333.63 175.02)"
     id="g48">
    <g
       stroke-width=".26458"
       aria-label="Hinode"
       id="g26">
      <path
         d="m9.3627 49.552v-153.94h32.547v63.516h66.072v-63.516h32.472v153.94h-32.472v-63.591h-66.072v63.591z"
         id="path14"
         style="fill:#aeb5bc;fill-opacity:1" />
      <path
         d="m166.69 49.552v-115.46h32.021v115.46zm16.086-130.34q-7.1409 0-12.252-4.7355-5.0362-4.8107-5.0362-11.501 0-6.6147 5.0362-11.35 5.1114-4.8107 12.252-4.8107 7.1408 0 12.177 4.8107 5.1114 4.7355 5.1114 11.35 0 6.6899-5.1114 11.501-5.0362 4.7355-12.177 4.7355z"
         id="path16"
         style="fill:#aeb5bc;fill-opacity:1" />
      <path
         d="m256.29-17.196v66.748h-32.021v-115.46h30.518v20.37h1.353q3.8335-10.072 12.854-15.935 9.02-5.9382 21.874-5.9382 12.027 0 20.972 5.2617t13.906 15.033q4.961 9.6965 4.961 23.151v73.513h-32.021v-67.801q0.0752-10.599-5.412-16.537-5.4872-6.0134-15.109-6.0134-6.4644 0-11.425 2.7812-4.8858 2.7812-7.667 8.118-2.706 5.2617-2.7812 12.703z"
         id="path18"
         style="fill:#aeb5bc;fill-opacity:1" />
      <path
         d="m408.05 51.807q-17.514 0-30.292-7.4415-12.703-7.5167-19.619-20.896-6.9154-13.455-6.9154-31.194 0-17.89 6.9154-31.269 6.9154-13.455 19.619-20.896 12.778-7.5167 30.292-7.5167t30.217 7.5167q12.778 7.4415 19.694 20.896 6.9154 13.38 6.9154 31.269 0 17.739-6.9154 31.194-6.9154 13.38-19.694 20.896-12.703 7.4415-30.217 7.4415zm0.15034-24.805q7.9677 0 13.305-4.51 5.3368-4.5852 8.0429-12.478 2.7812-7.8925 2.7812-17.965 0-10.072-2.7812-17.965-2.706-7.8925-8.0429-12.478t-13.305-4.5852q-8.0429 0-13.53 4.5852-5.412 4.5852-8.1932 12.478-2.706 7.8925-2.706 17.965 0 10.072 2.706 17.965 2.7812 7.8925 8.1932 12.478 5.4872 4.51 13.53 4.51z"
         id="path20"
         style="fill:#aeb5bc;fill-opacity:1" />
      <path
         d="m528.31 51.431q-13.154 0-23.828-6.765-10.599-6.8402-16.837-20.07-6.1637-13.305-6.1637-32.622 0-19.844 6.3892-32.998 6.3892-13.229 16.988-19.769 10.674-6.6147 23.377-6.6147 9.6965 0 16.161 3.3073 6.5395 3.2322 10.523 8.118 4.059 4.8107 6.1637 9.471h0.97717v-57.879h31.946v153.94h-31.57v-18.491h-1.353q-2.255 4.8107-6.3892 9.5462-4.059 4.6603-10.599 7.7422-6.4644 3.0818-15.785 3.0818zm10.148-25.482q7.7422 0 13.079-4.2093 5.412-4.2845 8.2684-11.952 2.9315-7.667 2.9315-17.965 0-10.298-2.8563-17.89-2.8564-7.5919-8.2684-11.726-5.412-4.1342-13.154-4.1342-7.8925 0-13.305 4.2845-5.412 4.2845-8.1932 11.876-2.7812 7.5919-2.7812 17.589 0 10.072 2.7812 17.815 2.8564 7.667 8.1932 12.027 5.412 4.2845 13.305 4.2845z"
         id="path22"
         style="fill:#aeb5bc;fill-opacity:1" />
      <path
         d="m672.86 51.807q-17.815 0-30.668-7.216-12.778-7.2912-19.694-20.596-6.9154-13.38-6.9154-31.645 0-17.815 6.9154-31.269 6.9154-13.455 19.468-20.972 12.628-7.5167 29.616-7.5167 11.425 0 21.272 3.6832 9.922 3.608 17.288 10.899 7.4415 7.2912 11.576 18.341 4.1342 10.974 4.1342 25.707v8.7945h-97.491v-19.844h67.35q0-6.9154-3.0067-12.252-3.0067-5.3368-8.3435-8.3435-5.2617-3.0818-12.252-3.0818-7.2912 0-12.929 3.3825-5.5624 3.3073-8.7194 8.9449-3.157 5.5624-3.2322 12.403v18.867q0 8.569 3.157 14.808 3.2322 6.2389 9.0952 9.6214 5.863 3.3825 13.906 3.3825 5.3368 0 9.7717-1.5033 4.4348-1.5033 7.5918-4.51 3.157-3.0067 4.8107-7.3664l29.616 1.9543q-2.255 10.674-9.2455 18.641-6.9154 7.8925-17.89 12.327-10.899 4.3597-25.181 4.3597z"
         id="path24"
         style="fill:#aeb5bc;fill-opacity:1" />
    </g>
    <g
       transform="matrix(.26458 0 0 .26458 -333.63 -176.34)"
       id="g46">
      <g
         transform="translate(0,-687)"
         clip-path="url(#a)"
         fill-rule="evenodd"
         id="g44">
        <path
           id="path28"
           style="fill:#aeb5bc;fill-opacity:1"
           d="M 241.49914 692.00076 C 108.11953 692.00076 7.5792104e-14 800.12031 0 933.49989 L 0 1541.4997 C -1.8947988e-14 1674.8694 108.11953 1783.0008 241.49914 1783.0008 L 849.48922 1783.0008 C 982.8688 1783.0008 1090.9903 1674.8694 1090.9903 1541.4997 L 1090.9903 933.49989 C 1090.9903 800.12031 982.8688 692.00076 849.48922 692.00076 L 241.49914 692.00076 z M 544.70022 944.89848 C 560.7092 944.89848 573.70059 957.97288 573.70059 974.14884 L 573.70059 1032.6496 C 573.70059 1048.8196 560.7092 1061.8999 544.70022 1061.8999 C 528.69226 1061.8999 515.69986 1048.8196 515.69986 1032.6496 L 515.69986 974.14884 C 515.69986 957.97288 528.69226 944.89848 544.70022 944.89848 z M 276.51716 1056.8374 C 283.88738 1056.8374 291.25737 1059.7153 296.89437 1065.4703 L 331.24831 1100.5704 C 342.50928 1112.0801 342.50928 1130.6898 331.24831 1142.1998 C 319.97437 1153.7198 301.76786 1153.7198 290.49389 1142.1998 L 256.13995 1107.0997 C 244.87898 1095.5897 244.87898 1076.9803 256.13995 1065.4703 C 261.77692 1059.7153 269.14691 1056.8374 276.51716 1056.8374 z M 813.55127 1056.8374 C 821.00226 1056.8374 828.45464 1059.7153 834.15113 1065.4703 C 845.54312 1076.9803 845.54312 1095.5897 834.15113 1107.0997 L 799.42023 1142.1998 C 788.04124 1153.7198 769.62224 1153.7198 758.23026 1142.1998 C 746.85127 1130.6898 746.85127 1112.0803 758.23026 1100.5704 L 792.96116 1065.4703 C 798.65066 1059.7153 806.10027 1056.8374 813.55127 1056.8374 z M 545.69047 1120.8499 C 687.16033 1120.8499 797.50079 1246.1309 777.30081 1387.7908 C 774.98681 1403.7108 760.21905 1414.8308 744.18906 1412.5509 C 728.19908 1410.2509 717.08367 1395.4396 719.35867 1379.4997 L 719.36063 1379.4997 C 734.66161 1273.8998 652.33136 1179.2393 545.69047 1179.2393 C 438.97058 1179.2393 356.73033 1274.0198 372.02031 1379.4997 C 374.30731 1395.4396 363.1929 1410.2496 347.18992 1412.5196 C 331.13494 1414.7096 316.39285 1403.7093 314.09185 1387.7693 C 293.85087 1245.9794 404.33761 1120.8499 545.69047 1120.8499 z M 164.94934 1325.8994 L 223.45008 1325.8994 C 239.62206 1325.8994 252.70045 1338.8898 252.70045 1354.8997 C 252.70045 1370.9097 239.62206 1383.9001 223.45008 1383.9001 L 164.94934 1383.9001 C 148.77736 1383.9001 135.70093 1370.9097 135.70093 1354.8997 C 135.70093 1338.8898 148.77736 1325.8994 164.94934 1325.8994 z M 866.95038 1325.8994 L 925.44916 1325.8994 C 941.62114 1325.8994 954.69953 1338.8898 954.69953 1354.8997 C 954.69953 1370.9097 941.62114 1383.9001 925.44916 1383.9001 L 866.95038 1383.9001 C 850.77839 1383.9001 837.70001 1370.9097 837.70001 1354.8997 C 837.70001 1338.8898 850.77839 1325.8994 866.95038 1325.8994 z M 281.95082 1470.8992 L 808.44964 1470.8992 C 824.62162 1470.8992 837.70001 1484.1096 837.70001 1500.3996 C 837.70001 1516.6796 824.62162 1529.9 808.44964 1529.9 L 281.95082 1529.9 C 265.77883 1529.9 252.70045 1516.6796 252.70045 1500.3996 C 252.70045 1484.1096 265.77883 1470.8992 281.95082 1470.8992 z " />
      </g>
    </g>
  </g>
</svg>

<?xml version="1.0" encoding="UTF-8"?>
<svg width="1059mm" height="288.66mm" version="1.1" viewBox="0 0 1059 288.66" xmlns="http://www.w3.org/2000/svg">
<defs>
<clipPath id="a">
<rect y="687" width="1095" height="1100"/>
</clipPath>
</defs>
<g transform="translate(333.63 175.02)">
<g fill="#aeb5bc" stroke-width=".26458" aria-label="Hinode">
<path d="m9.3627 49.552v-153.94h32.547v63.516h66.072v-63.516h32.472v153.94h-32.472v-63.591h-66.072v63.591z"/>
<path d="m166.69 49.552v-115.46h32.021v115.46zm16.086-130.34q-7.1409 0-12.252-4.7355-5.0362-4.8107-5.0362-11.501 0-6.6147 5.0362-11.35 5.1114-4.8107 12.252-4.8107 7.1408 0 12.177 4.8107 5.1114 4.7355 5.1114 11.35 0 6.6899-5.1114 11.501-5.0362 4.7355-12.177 4.7355z"/>
<path d="m256.29-17.196v66.748h-32.021v-115.46h30.518v20.37h1.353q3.8335-10.072 12.854-15.935 9.02-5.9382 21.874-5.9382 12.027 0 20.972 5.2617t13.906 15.033q4.961 9.6965 4.961 23.151v73.513h-32.021v-67.801q0.0752-10.599-5.412-16.537-5.4872-6.0134-15.109-6.0134-6.4644 0-11.425 2.7812-4.8858 2.7812-7.667 8.118-2.706 5.2617-2.7812 12.703z"/>
<path d="m408.05 51.807q-17.514 0-30.292-7.4415-12.703-7.5167-19.619-20.896-6.9154-13.455-6.9154-31.194 0-17.89 6.9154-31.269 6.9154-13.455 19.619-20.896 12.778-7.5167 30.292-7.5167t30.217 7.5167q12.778 7.4415 19.694 20.896 6.9154 13.38 6.9154 31.269 0 17.739-6.9154 31.194-6.9154 13.38-19.694 20.896-12.703 7.4415-30.217 7.4415zm0.15034-24.805q7.9677 0 13.305-4.51 5.3368-4.5852 8.0429-12.478 2.7812-7.8925 2.7812-17.965 0-10.072-2.7812-17.965-2.706-7.8925-8.0429-12.478t-13.305-4.5852q-8.0429 0-13.53 4.5852-5.412 4.5852-8.1932 12.478-2.706 7.8925-2.706 17.965 0 10.072 2.706 17.965 2.7812 7.8925 8.1932 12.478 5.4872 4.51 13.53 4.51z"/>
<path d="m528.31 51.431q-13.154 0-23.828-6.765-10.599-6.8402-16.837-20.07-6.1637-13.305-6.1637-32.622 0-19.844 6.3892-32.998 6.3892-13.229 16.988-19.769 10.674-6.6147 23.377-6.6147 9.6965 0 16.161 3.3073 6.5395 3.2322 10.523 8.118 4.059 4.8107 6.1637 9.471h0.97717v-57.879h31.946v153.94h-31.57v-18.491h-1.353q-2.255 4.8107-6.3892 9.5462-4.059 4.6603-10.599 7.7422-6.4644 3.0818-15.785 3.0818zm10.148-25.482q7.7422 0 13.079-4.2093 5.412-4.2845 8.2684-11.952 2.9315-7.667 2.9315-17.965t-2.8563-17.89q-2.8564-7.5919-8.2684-11.726-5.412-4.1342-13.154-4.1342-7.8925 0-13.305 4.2845-5.412 4.2845-8.1932 11.876-2.7812 7.5919-2.7812 17.589 0 10.072 2.7812 17.815 2.8564 7.667 8.1932 12.027 5.412 4.2845 13.305 4.2845z"/>
<path d="m672.86 51.807q-17.815 0-30.668-7.216-12.778-7.2912-19.694-20.596-6.9154-13.38-6.9154-31.645 0-17.815 6.9154-31.269 6.9154-13.455 19.468-20.972 12.628-7.5167 29.616-7.5167 11.425 0 21.272 3.6832 9.922 3.608 17.288 10.899 7.4415 7.2912 11.576 18.341 4.1342 10.974 4.1342 25.707v8.7945h-97.491v-19.844h67.35q0-6.9154-3.0067-12.252-3.0067-5.3368-8.3435-8.3435-5.2617-3.0818-12.252-3.0818-7.2912 0-12.929 3.3825-5.5624 3.3073-8.7194 8.9449-3.157 5.5624-3.2322 12.403v18.867q0 8.569 3.157 14.808 3.2322 6.2389 9.0952 9.6214t13.906 3.3825q5.3368 0 9.7717-1.5033 4.4348-1.5033 7.5918-4.51t4.8107-7.3664l29.616 1.9543q-2.255 10.674-9.2455 18.641-6.9154 7.8925-17.89 12.327-10.899 4.3597-25.181 4.3597z"/>
</g>
<g transform="matrix(.26458 0 0 .26458 -333.63 -176.34)">
<g transform="translate(0,-687)" clip-path="url(#a)" fill-rule="evenodd">
<path d="m241.5 692c-133.38 0-241.5 108.12-241.5 241.5v608c-1.8948e-14 133.37 108.12 241.5 241.5 241.5h607.99c133.38 0 241.5-108.13 241.5-241.5v-608c0-133.38-108.12-241.5-241.5-241.5h-607.99zm303.2 252.9c16.009 0 29 13.074 29 29.25v58.501c0 16.17-12.991 29.25-29 29.25-16.008 0-29-13.08-29-29.25v-58.501c0-16.176 12.992-29.25 29-29.25zm-268.18 111.94c7.3702 0 14.74 2.8779 20.377 8.6329l34.354 35.1c11.261 11.51 11.261 30.119 0 41.629-11.274 11.52-29.48 11.52-40.754 0l-34.354-35.1c-11.261-11.51-11.261-30.119 0-41.629 5.637-5.755 13.007-8.6329 20.377-8.6329zm537.03 0c7.451 0 14.903 2.8779 20.6 8.6329 11.392 11.51 11.392 30.119 0 41.629l-34.731 35.1c-11.379 11.52-29.798 11.52-41.19 0-11.379-11.51-11.379-30.12 0-41.629l34.731-35.1c5.6895-5.755 13.139-8.6329 20.59-8.6329zm-267.86 64.012c141.47 0 251.81 125.28 231.61 266.94-2.314 15.92-17.082 27.04-33.112 24.76-15.99-2.3-27.105-17.111-24.83-33.051h0.00196c15.301-105.6-67.029-200.26-173.67-200.26-106.72 0-188.96 94.78-173.67 200.26 2.287 15.94-8.8274 30.75-24.83 33.02-16.055 2.19-30.797-8.8103-33.098-24.75-20.241-141.79 90.246-266.92 231.6-266.92zm-380.74 205.05h58.501c16.172 0 29.25 12.99 29.25 29 0 16.01-13.078 29-29.25 29h-58.501c-16.172 0-29.248-12.99-29.248-29 0-16.01 13.076-29 29.248-29zm702 0h58.499c16.172 0 29.25 12.99 29.25 29 0 16.01-13.078 29-29.25 29h-58.499c-16.172 0-29.25-12.99-29.25-29 0-16.01 13.078-29 29.25-29zm-585 145h526.5c16.172 0 29.25 13.21 29.25 29.5 0 16.28-13.078 29.5-29.25 29.5h-526.5c-16.172 0-29.25-13.22-29.25-29.5 0-16.29 13.078-29.5 29.25-29.5z" fill="#aeb5bc"/>
</g>
</g>
</g>
</svg>
